X: 9
T: Four Seasons
M: 6/8
L: 1/8
G: Four Seasons
R: Jig
B: Straight and Skillern – Two Hundred and Four Favourite Country Dances, vol. 1 (c. 1775, No. 35, p. 18)
Z: AK/Fiddler’s Companion
K: D
"D"aba fdf| agf "A7"e2A |"D"d2A"A7"e2A |"D"agf "A7"e2D| "D"aba fdf| agf "A7"e2A |
"D"d2A"A7"e2A |fge "D"d3:||:"D"FGF "A7"EFG| GFE "D"F2A| FGF "A7"EFG| GFE "D"F2D
"D"FGF "A7"EFG| GFE "D"F2A| FGF "A7"EFG| GFE "D"F2D:||:ABA d3 |ABA F3| 
ABA "Em"GAG| "A7"EFG "D"F2DABA d3 |ABA F3| ABA "Em"GAG| "A7"EFG "D"F2D:||
